X:102
M:C
L:1/8
K:G
|: "tr"g2 {fg}(bg) (af)(gd) | e>f "tr"f>e/2f/4 g/f/g/a/ gd | "tr"g2 {fg}(bg) (af)(gd) | e>f "tr"f>e/2f/4 g3 :|
|: B | (ce)(Ac) (Bd)(GB) | Aa "tr"f>e/2f/4 (gb)(Bd) | (ce)Ac (Bd)(GB) | A/B/c DF G2 z2 :|

